static/img/xr/Slider_32_Text_Anatomy.svg

<svg fill="none" height="56" viewBox="0 0 244 56" width="244" xmlns="http://www.w3.org/2000/svg"><g fill="#89c6ed"><circle cx="33" cy="45" r="1"/><circle cx="43.1428" cy="45" r="1"/><circle cx="53.2858" cy="45" r="1"/><circle cx="63.4286" cy="45" r="1"/><circle cx="73.5714" cy="45" r="1"/><circle cx="83.7142" cy="45" r="1"/><circle cx="93.8572" cy="45" r="1"/><circle cx="104" cy="45" r="1"/><circle cx="114.143" cy="45" r="1"/><circle cx="124.286" cy="45" r="1"/><circle cx="134.429" cy="45" r="1"/><circle cx="144.571" cy="45" r="1"/><circle cx="154.714" cy="45" r="1"/><circle cx="164.857" cy="45" r="1"/><circle cx="175" cy="45" r="1"/><rect height="2" rx="1" width="144" x="32" y="26"/></g><rect fill="#cbcdd6" height="32" rx="8" width="20" x="94" y="11"/><path d="m105.607 28.4267c-.067-.58-.2-1.1533-.414-1.6933-.465.1834-.973.2332-1.465.1437-.493-.0895-.95-.3148-1.321-.6504-.554.5733-1.047 1.2067-1.48 1.8733 1.273 1.04 3.366 1.3134 4.68.3267zm-3.187-3.0733c.393-.3667.82-.7067 1.267-1.0067-.406-.3728-.882-.6607-1.4-.8467-.374.58-.32 1.34.133 1.86m1.727-1.3466c.306-.2267.633-.4067.986-.5467-.308-.3-.7-.4984-1.125-.5687-.424-.0704-.86-.0091-1.248.1754.513.2266.987.5466 1.393.94m-4.173-.6467c-.8933 1.2667-.4733 3.1133.56 4.2733.443-.6758.948-1.3095 1.507-1.8933-.574-.6667-.687-1.6133-.267-2.3933-.593-.1467-1.213-.14-1.8.0133zm1.8-.0133 3.66 2.4733c.44-.56.447-1.3467.02-1.9133-.333.1333-.64.32-.92.54.353.42.66.88.9 1.3733m-3.287-3.0467c.394-.28.86-.4333 1.34-.4466-.986-.1667-2-.0534-2.926.3333.533-.06 1.073-.02 1.586.1133zm2.847 3.3934c-.24-.5067-.547-.9734-.907-1.3934-.453.3-.88.64-1.28 1.0067.6.5267 1.447.68 2.187.3867zm1.3-1.4067c.087.6133-.153 1.2267-.627 1.6333.194.4934.34 1 .427 1.52.31-.4604.492-.9953.528-1.5495.035-.5542-.078-1.1078-.328-1.6038zm-.113 3.94c.013.38 0 .7667-.054 1.1467.702-.8995 1.04-2.0298.947-3.1667-.067.7533-.38 1.46-.893 2.02zm3.833-1.6933-2.647-1.5334c.314 1 .307 2.0667-.013 3.0667zm-9.36 1.66c-.387.6333-.6733 1.3266-.84 2.0533.809.6094 1.798.9306 2.811.9125 1.012-.0181 1.989-.3745 2.776-1.0125.18-.4667.266-.9667.253-1.4667-.792.409-1.685.5806-2.572.4943s-1.73-.4269-2.428-.9809zm-.413-.48c-.5245-.5337-.9051-1.1914-1.1068-1.9117-.2016-.7204-.2178-1.4801-.0468-2.2083-.7368.869-1.1185 1.984-1.0691 3.1222s.5264 2.2159 1.3357 3.0178c.2067-.7134.5067-1.3934.893-2.02m1.207-6.3267-2.6333-1.5133v3.0333c.7014-.7631 1.6213-1.2915 2.6333-1.5133zm-2.6333 11.8067 2.6533-1.5334c-1.02-.2211-1.9466-.752-2.6533-1.52z" fill="#252a2e"/><path d="m205.978 26h-.501v-3.8437h-1.348v-.4395h3.19v.4395h-1.341zm2.402-3.2109v3.2109h-.486v-3.2109zm-.237-1.2012c.08 0 .148.0264.205.0791.058.0508.088.1309.088.2403 0 .1074-.03.1875-.088.2402-.057.0527-.125.0791-.205.0791-.084 0-.155-.0264-.211-.0791-.055-.0527-.082-.1328-.082-.2402 0-.1094.027-.1895.082-.2403.056-.0527.127-.0791.211-.0791zm2.305 4.0723c.08 0 .162-.0068.246-.0205s.153-.0303.205-.0498v.3779c-.056.0254-.135.0469-.237.0645-.1.0176-.197.0263-.293.0263-.17 0-.324-.0293-.463-.0879-.138-.0605-.25-.1621-.334-.3046-.082-.1426-.123-.3399-.123-.5918v-1.9043h-.457v-.2373l.46-.1905.194-.6972h.292v.7441h.941v.3809h-.941v1.8896c0 .2012.046.3516.138.4512.094.0996.218.1494.372.1494zm1.591.3398h-.489v-4.5585h.489zm2.265-3.2695c.273 0 .508.0606.703.1817.195.121.345.291.448.5097.104.2168.155.4707.155.7617v.3018h-2.217c.005.377.099.6641.281.8613.181.1973.437.2959.767.2959.204 0 .383-.0185.539-.0556.157-.0371.319-.0918.487-.1641v.4277c-.162.0723-.323.125-.484.1582-.158.0332-.345.0498-.562.0498-.309 0-.578-.0625-.809-.1875-.228-.1269-.406-.3125-.533-.5566s-.19-.543-.19-.8965c0-.3457.057-.6445.173-.8965.117-.2539.281-.4492.492-.5859.213-.1367.463-.2051.75-.2051zm-.006.3985c-.26 0-.467.0849-.621.2548-.155.17-.246.4073-.276.7119h1.7c-.002-.1914-.033-.3593-.091-.5039-.057-.1464-.144-.2597-.261-.3398-.117-.082-.268-.123-.451-.123z" fill="#252a2e"/><path d="m202.456 32.8614-2.427 7.1386h-1.65l-2.422-7.1386h1.528l1.343 4.248c.023.0716.06.2067.112.4053.053.1953.105.4036.157.625.055.2181.092.3988.112.542.02-.1432.054-.3239.103-.542.052-.2181.102-.4248.151-.6201.052-.1986.089-.3353.112-.4102l1.353-4.248zm3.023 1.5674c.732 0 1.293.1595 1.684.4785s.586.804.586 1.4551v3.6376h-1.04l-.288-.7421h-.039c-.156.1953-.316.3548-.479.4785-.162.1237-.35.2148-.561.2734-.212.0586-.469.0879-.772.0879-.322 0-.612-.0618-.869-.1855-.254-.1237-.454-.3125-.6-.5665-.147-.2571-.22-.5826-.22-.9765 0-.5794.203-1.0059.61-1.2793.407-.2767 1.017-.4297 1.831-.459l.948-.0293v-.2392c0-.2865-.075-.4965-.225-.6299-.15-.1335-.358-.2002-.625-.2002-.264 0-.523.0374-.776.1123-.254.0748-.508.1692-.762.2832l-.493-1.0059c.289-.153.613-.2734.971-.3613.362-.0879.734-.1318 1.119-.1318zm.791 3.0419-.577.0196c-.481.013-.817.0993-1.005.2588-.186.1595-.279.3694-.279.6299 0 .2278.067.3906.2.4882.134.0944.308.1416.523.1416.319 0 .587-.0944.806-.2832.221-.1888.332-.4573.332-.8056zm4.506 2.5293h-1.489v-7.5976h1.489zm6.578-5.4589v5.4589h-1.143l-.2-.6982h-.078c-.118.1856-.264.3369-.44.4541s-.369.2035-.581.2588c-.211.0553-.431.083-.659.083-.391 0-.731-.0684-1.021-.2051-.289-.14-.516-.3564-.678-.6494-.16-.293-.24-.6738-.24-1.1426v-3.5595h1.49v3.1884c0 .3907.07.6853.21.8838.14.1986.363.2979.669.2979.302 0 .54-.0684.713-.2051.172-.14.292-.3434.361-.6104.071-.2701.107-.5989.107-.9863v-2.5683zm3.813-.1026c.505 0 .939.0977 1.304.293.364.192.646.472.844.8398.199.3679.298.8171.298 1.3477v.7226h-3.52c.016.42.141.7504.376.9913.237.2376.566.3564.986.3564.348 0 .667-.0358.957-.1074s.588-.1791.894-.3223v1.1524c-.271.1334-.554.2311-.85.2929-.293.0619-.649.0928-1.069.0928-.547 0-1.032-.1009-1.455-.3027-.42-.2019-.751-.5095-.992-.9229-.237-.4134-.356-.9342-.356-1.5625 0-.638.107-1.1686.322-1.5918.218-.4264.521-.7454.908-.957.388-.2149.839-.3223 1.353-.3223zm.01 1.0596c-.29 0-.531.0928-.723.2783-.189.1856-.298.4769-.327.874h2.09c-.003-.2213-.044-.4183-.122-.5908-.075-.1725-.189-.3092-.342-.4101-.15-.101-.342-.1514-.576-.1514z" fill="#252a2e"/><path d="m16.25 8.25h77.5v39.5h-77.5z" fill="#89c6ed" fill-opacity=".5" stroke="#fff" stroke-width=".5"/><path d="m114.25 8.25h77.5v39.5h-77.5z" fill="#89c6ed" fill-opacity=".5" stroke="#fff" stroke-width=".5"/><path d="m192.25 8.25h35.5v39.5h-35.5z" fill="#89c6ed" fill-opacity=".5" stroke="#fff" stroke-width=".5"/><path d="m94.25 10.25h19.5v31.5h-19.5z" fill="#89c6ed" fill-opacity=".5" stroke="#fff" stroke-width=".5"/><path d="m0 8h7.99999v244h-7.99999z" fill="#ff95f8" fill-opacity=".5" transform="matrix(0 -1 1 0 -8 8)"/><path d="m16 48h16v40h-16z" fill="#ff95f8" fill-opacity=".5" transform="matrix(-1 0 0 -1 32 96)"/><path d="m244 48h16v40h-16z" fill="#ff95f8" fill-opacity=".5" transform="matrix(-1 0 0 -1 488 96)"/><path d="m0 56h7.99999v244h-7.99999z" fill="#ff95f8" fill-opacity=".5" transform="matrix(0 -1 1 0 -56 56)"/></svg>

<svg width="244" height="56" viewBox="0 0 244 56" fill="none" xmlns="http://www.w3.org/2000/svg">
<circle cx="33" cy="45" r="1" fill="#89C6ED"/>
<circle cx="43.1428" cy="45" r="1" fill="#89C6ED"/>
<circle cx="53.2858" cy="45" r="1" fill="#89C6ED"/>
<circle cx="63.4286" cy="45" r="1" fill="#89C6ED"/>
<circle cx="73.5714" cy="45" r="1" fill="#89C6ED"/>
<circle cx="83.7142" cy="45" r="1" fill="#89C6ED"/>
<circle cx="93.8572" cy="45" r="1" fill="#89C6ED"/>
<circle cx="104" cy="45" r="1" fill="#89C6ED"/>
<circle cx="114.143" cy="45" r="1" fill="#89C6ED"/>
<circle cx="124.286" cy="45" r="1" fill="#89C6ED"/>
<circle cx="134.429" cy="45" r="1" fill="#89C6ED"/>
<circle cx="144.571" cy="45" r="1" fill="#89C6ED"/>
<circle cx="154.714" cy="45" r="1" fill="#89C6ED"/>
<circle cx="164.857" cy="45" r="1" fill="#89C6ED"/>
<circle cx="175" cy="45" r="1" fill="#89C6ED"/>
<rect x="32" y="26" width="144" height="2" rx="1" fill="#89C6ED"/>
<rect x="94" y="11" width="20" height="32" rx="8" fill="#CBCDD6"/>
<path d="M105.607 28.4267C105.54 27.8467 105.407 27.2734 105.193 26.7334C104.728 26.9168 104.22 26.9666 103.728 26.8771C103.235 26.7876 102.778 26.5623 102.407 26.2267C101.853 26.8 101.36 27.4334 100.927 28.1C102.2 29.14 104.293 29.4134 105.607 28.4267ZM102.42 25.3534C102.813 24.9867 103.24 24.6467 103.687 24.3467C103.281 23.9739 102.805 23.686 102.287 23.5C101.913 24.08 101.967 24.84 102.42 25.36M104.147 24.0134C104.453 23.7867 104.78 23.6067 105.133 23.4667C104.825 23.1667 104.433 22.9683 104.008 22.898C103.584 22.8276 103.148 22.8889 102.76 23.0734C103.273 23.3 103.747 23.62 104.153 24.0134M99.98 23.3667C99.0867 24.6334 99.5067 26.48 100.54 27.64C100.983 26.9642 101.488 26.3305 102.047 25.7467C101.473 25.08 101.36 24.1334 101.78 23.3534C101.187 23.2067 100.567 23.2134 99.98 23.3667ZM101.78 23.3534L105.44 25.8267C105.88 25.2667 105.887 24.48 105.46 23.9134C105.127 24.0467 104.82 24.2334 104.54 24.4534C104.893 24.8734 105.2 25.3334 105.44 25.8267M102.153 22.78C102.547 22.5 103.013 22.3467 103.493 22.3334C102.507 22.1667 101.493 22.28 100.567 22.6667C101.1 22.6067 101.64 22.6467 102.153 22.78ZM105 26.1734C104.76 25.6667 104.453 25.2 104.093 24.78C103.64 25.08 103.213 25.42 102.813 25.7867C103.413 26.3134 104.26 26.4667 105 26.1734ZM106.3 24.7667C106.387 25.38 106.147 25.9934 105.673 26.4C105.867 26.8934 106.013 27.4 106.1 27.92C106.41 27.4596 106.592 26.9247 106.628 26.3705C106.663 25.8163 106.55 25.2627 106.3 24.7667ZM106.187 28.7067C106.2 29.0867 106.187 29.4734 106.133 29.8534C106.835 28.9539 107.173 27.8236 107.08 26.6867C107.013 27.44 106.7 28.1467 106.187 28.7067ZM110.02 27.0134L107.373 25.48C107.687 26.48 107.68 27.5467 107.36 28.5467L110.02 27.0134ZM100.66 28.6734C100.273 29.3067 99.9867 30 99.82 30.7267C100.629 31.3361 101.618 31.6573 102.631 31.6392C103.643 31.6211 104.62 31.2647 105.407 30.6267C105.587 30.16 105.673 29.66 105.66 29.16C104.868 29.569 103.975 29.7406 103.088 29.6543C102.201 29.568 101.358 29.2274 100.66 28.6734ZM100.247 28.1934C99.7225 27.6597 99.3419 27.002 99.1402 26.2817C98.9386 25.5613 98.9224 24.8016 99.0934 24.0734C98.3566 24.9424 97.9749 26.0574 98.0243 27.1956C98.0737 28.3338 98.5507 29.4115 99.36 30.2134C99.5667 29.5 99.8667 28.82 100.253 28.1934M101.46 21.8667L98.8267 20.3534V23.3867C99.5281 22.6236 100.448 22.0952 101.46 21.8734V21.8667ZM98.8267 33.6734L101.48 32.14C100.46 31.9189 99.5334 31.388 98.8267 30.62V33.6734Z" fill="#252A2E"/>
<path d="M205.978 26H205.477V22.1563H204.129V21.7168H207.319V22.1563H205.978V26ZM208.38 22.7891V26H207.894V22.7891H208.38ZM208.143 21.5879C208.223 21.5879 208.291 21.6143 208.348 21.667C208.406 21.7178 208.436 21.7979 208.436 21.9073C208.436 22.0147 208.406 22.0948 208.348 22.1475C208.291 22.2002 208.223 22.2266 208.143 22.2266C208.059 22.2266 207.988 22.2002 207.932 22.1475C207.877 22.0948 207.85 22.0147 207.85 21.9073C207.85 21.7979 207.877 21.7178 207.932 21.667C207.988 21.6143 208.059 21.5879 208.143 21.5879ZM210.448 25.6602C210.528 25.6602 210.61 25.6534 210.694 25.6397C210.778 25.626 210.847 25.6094 210.899 25.5899V25.9678C210.843 25.9932 210.764 26.0147 210.662 26.0323C210.562 26.0499 210.465 26.0586 210.369 26.0586C210.199 26.0586 210.045 26.0293 209.906 25.9707C209.768 25.9102 209.656 25.8086 209.572 25.6661C209.49 25.5235 209.449 25.3262 209.449 25.0743V23.17H208.992V22.9327L209.452 22.7422L209.646 22.045H209.938V22.7891H210.879V23.17H209.938V25.0596C209.938 25.2608 209.984 25.4112 210.076 25.5108C210.17 25.6104 210.294 25.6602 210.448 25.6602ZM212.039 26H211.55V21.4415H212.039V26ZM214.304 22.7305C214.577 22.7305 214.812 22.7911 215.007 22.9122C215.202 23.0332 215.352 23.2032 215.455 23.4219C215.559 23.6387 215.61 23.8926 215.61 24.1836V24.4854H213.393C213.398 24.8624 213.492 25.1495 213.674 25.3467C213.855 25.544 214.111 25.6426 214.441 25.6426C214.645 25.6426 214.824 25.6241 214.98 25.587C215.137 25.5499 215.299 25.4952 215.467 25.4229V25.8506C215.305 25.9229 215.144 25.9756 214.983 26.0088C214.825 26.042 214.638 26.0586 214.421 26.0586C214.112 26.0586 213.843 25.9961 213.612 25.8711C213.384 25.7442 213.206 25.5586 213.079 25.3145C212.952 25.0704 212.889 24.7715 212.889 24.418C212.889 24.0723 212.946 23.7735 213.062 23.5215C213.179 23.2676 213.343 23.0723 213.554 22.9356C213.767 22.7989 214.017 22.7305 214.304 22.7305ZM214.298 23.129C214.038 23.129 213.831 23.2139 213.677 23.3838C213.522 23.5538 213.431 23.7911 213.401 24.0957H215.101C215.099 23.9043 215.068 23.7364 215.01 23.5918C214.953 23.4454 214.866 23.3321 214.749 23.252C214.632 23.17 214.481 23.129 214.298 23.129Z" fill="#252A2E"/>
<path d="M202.456 32.8614L200.029 40H198.379L195.957 32.8614H197.485L198.828 37.1094C198.851 37.181 198.888 37.3161 198.94 37.5147C198.993 37.71 199.045 37.9183 199.097 38.1397C199.152 38.3578 199.189 38.5385 199.209 38.6817C199.229 38.5385 199.263 38.3578 199.312 38.1397C199.364 37.9216 199.414 37.7149 199.463 37.5196C199.515 37.321 199.552 37.1843 199.575 37.1094L200.928 32.8614H202.456ZM205.479 34.4288C206.211 34.4288 206.772 34.5883 207.163 34.9073C207.554 35.2263 207.749 35.7113 207.749 36.3624V40H206.709L206.421 39.2579H206.382C206.226 39.4532 206.066 39.6127 205.903 39.7364C205.741 39.8601 205.553 39.9512 205.342 40.0098C205.13 40.0684 204.873 40.0977 204.57 40.0977C204.248 40.0977 203.958 40.0359 203.701 39.9122C203.447 39.7885 203.247 39.5997 203.101 39.3457C202.954 39.0886 202.881 38.7631 202.881 38.3692C202.881 37.7898 203.084 37.3633 203.491 37.0899C203.898 36.8132 204.508 36.6602 205.322 36.6309L206.27 36.6016V36.3624C206.27 36.0759 206.195 35.8659 206.045 35.7325C205.895 35.599 205.687 35.5323 205.42 35.5323C205.156 35.5323 204.897 35.5697 204.644 35.6446C204.39 35.7194 204.136 35.8138 203.882 35.9278L203.389 34.9219C203.678 34.7689 204.002 34.6485 204.36 34.5606C204.722 34.4727 205.094 34.4288 205.479 34.4288ZM206.27 37.4707L205.693 37.4903C205.212 37.5033 204.876 37.5896 204.688 37.7491C204.502 37.9086 204.409 38.1185 204.409 38.379C204.409 38.6068 204.476 38.7696 204.609 38.8672C204.743 38.9616 204.917 39.0088 205.132 39.0088C205.451 39.0088 205.719 38.9144 205.938 38.7256C206.159 38.5368 206.27 38.2683 206.27 37.92V37.4707ZM210.776 40H209.287V32.4024H210.776V40ZM217.354 34.5411V40H216.211L216.011 39.3018H215.933C215.815 39.4874 215.669 39.6387 215.493 39.7559C215.317 39.8731 215.124 39.9594 214.912 40.0147C214.701 40.07 214.481 40.0977 214.253 40.0977C213.862 40.0977 213.522 40.0293 213.232 39.8926C212.943 39.7526 212.716 39.5362 212.554 39.2432C212.394 38.9502 212.314 38.5694 212.314 38.1006V34.5411H213.804V37.7295C213.804 38.1202 213.874 38.4148 214.014 38.6133C214.154 38.8119 214.377 38.9112 214.683 38.9112C214.985 38.9112 215.223 38.8428 215.396 38.7061C215.568 38.5661 215.688 38.3627 215.757 38.0957C215.828 37.8256 215.864 37.4968 215.864 37.1094V34.5411H217.354ZM221.167 34.4385C221.672 34.4385 222.106 34.5362 222.471 34.7315C222.835 34.9235 223.117 35.2035 223.315 35.5713C223.514 35.9392 223.613 36.3884 223.613 36.919V37.6416H220.093C220.109 38.0616 220.234 38.392 220.469 38.6329C220.706 38.8705 221.035 38.9893 221.455 38.9893C221.803 38.9893 222.122 38.9535 222.412 38.8819C222.702 38.8103 223 38.7028 223.306 38.5596V39.712C223.035 39.8454 222.752 39.9431 222.456 40.0049C222.163 40.0668 221.807 40.0977 221.387 40.0977C220.84 40.0977 220.355 39.9968 219.932 39.795C219.512 39.5931 219.181 39.2855 218.94 38.8721C218.703 38.4587 218.584 37.9379 218.584 37.3096C218.584 36.6716 218.691 36.141 218.906 35.7178C219.124 35.2914 219.427 34.9724 219.814 34.7608C220.202 34.5459 220.653 34.4385 221.167 34.4385ZM221.177 35.4981C220.887 35.4981 220.646 35.5909 220.454 35.7764C220.265 35.962 220.156 36.2533 220.127 36.6504H222.217C222.214 36.4291 222.173 36.2321 222.095 36.0596C222.02 35.8871 221.906 35.7504 221.753 35.6495C221.603 35.5485 221.411 35.4981 221.177 35.4981Z" fill="#252A2E"/>
<path d="M16.25 8.25H93.75V47.75H16.25V8.25Z" fill="#89C6ED" fill-opacity="0.5" stroke="white" stroke-width="0.5"/>
<path d="M114.25 8.25H191.75V47.75H114.25V8.25Z" fill="#89C6ED" fill-opacity="0.5" stroke="white" stroke-width="0.5"/>
<path d="M192.25 8.25H227.75V47.75H192.25V8.25Z" fill="#89C6ED" fill-opacity="0.5" stroke="white" stroke-width="0.5"/>
<path d="M94.25 10.25H113.75V41.75H94.25V10.25Z" fill="#89C6ED" fill-opacity="0.5" stroke="white" stroke-width="0.5"/>
<rect y="8" width="7.99999" height="244" transform="rotate(-90 0 8)" fill="#FF95F8" fill-opacity="0.5"/>
<rect x="16" y="48" width="16" height="40" transform="rotate(180 16 48)" fill="#FF95F8" fill-opacity="0.5"/>
<rect x="244" y="48" width="16" height="40" transform="rotate(180 244 48)" fill="#FF95F8" fill-opacity="0.5"/>
<rect y="56" width="7.99999" height="244" transform="rotate(-90 0 56)" fill="#FF95F8" fill-opacity="0.5"/>
</svg>
